X:1
T:French Suite VI Gavotte
T:BWV 817
T:J. S. Bach
%%score { ( 1 2 ) | 3 }
L:1/8
Q:1/4=184
M:4/4
K:E
V:1 treble nm="Harp"
V:2 treble 
V:3 bass 
V:1
"^Presto" B2 c2 | c2 d2 de f2 | f2 e2 g2 fg/a/ | g2 de/f/ e2 fg/a/ | d2 c<B B2 c2 | c2 d2 de f2 | %6
 f2 e2 c2 cd/e/ | d2 de/f/ d2 cB | B4 B2 c2 | c2 d2 de f2 | f2 e2 g2 fg/a/ | g2 de/f/ e2 fg/a/ | %12
 d2 c<B B2 c2 | c2 d2 de f2 | f2 e2 c2 cd/e/ | d2 de/f/ d2 cB | B4 d2 f2 | d2 cB ef g2 | %18
 g2 c2 f2 e2 | e2 d2 d^B c2 | ^B2 ^AG =B2 =d2 | =d2 g2 gB c2 | A4 A2 c2 | c2 f2 fd e2 | %24
 e/4d/4e/4d/4e/4d/4e/4d/4 c<B g2 a2 | a2 b2 b4- | bagf e4- | e6 d2 | e4 d2 f2 | d2 cB ef g2 | %30
 g2 c2 f2 e2 | e2 d2 d^B c2 | ^B2 ^AG =B2 =d2 | =d2 g2 gB c2 | A4 A2 c2 | c2 f2 fd e2 | %36
 e/4d/4e/4d/4e/4d/4e/4d/4 c<B g2 a2 | a2 b2 b4- | bagf e4- | e6 d2 | !fermata!e4 z4 |] %41
V:2
 G2 A2 | A2 F2 FG A2 | A2 G2 B4- | B6 c2 | F4 G2 A2 | A2 F2 FG A2 | A2 G2 B4- | B4- B2 ^A2 | %8
 B4 G2 A2 | A2 F2 FG A2 | A2 G2 B4- | B6 c2 | F4 G2 A2 | A2 F2 FG A2 | A2 G2 B4- | B4- B2 ^A2 | %16
 B4 F4- | F4 B4- | B4 A2 G2 | G2 F2 F2 E2 | D4 G4 | B4 z2 ^E2 | F4 F4 | A6 G2 | F4 B2 c2 | %25
 c2 =d2 dB c2 | c4 F2 F/G/A | G2 G/A/B G2 FE | E4 F4- | F4 B4- | B4 A2 G2 | G2 F2 F2 E2 | D4 G4 | %33
 B4 z2 ^E2 | F4 F4 | A6 G2 | F4 B2 c2 | c2 =d2 dB c2 | c4 F2 F/G/A | G2 G/A/B G2 FE | %40
 !fermata!E4 x4 |] %41
V:3
 E,2 z2 | E,,2 z2 E,2 z2 | E,,2 z2 E,2 D,2 | E,2 F,2 G,2 A,2 | B,A,G,F, E,2 z2 | E,,2 z2 E,2 z2 | %6
 E,,2 E,F, G,E,D,C, | F,D,C,B,, F,2 F,,2 | B,,4 E,2 z2 | E,,2 z2 E,2 z2 | E,,2 z2 E,2 D,2 | %11
 E,2 F,2 G,2 A,2 | B,A,G,F, E,2 z2 | E,,2 z2 E,2 z2 | E,,2 E,F, G,E,D,C, | F,D,C,B,, F,2 F,,2 | %16
 B,,4 B,2 A,2 | A,2 G,2 G,F, E,2 | A,4 D,C,D,E, | F,E,F,G, A,G,A,F, | G,A,G,F, ^E,2 z2 | %21
 G,2 z2 C,2 z2 | F,G,A,B, CDEC | DCB,A, G,F,G,E, | B,A,G,F, E,2 z2 | E,,2 z2 ^E,,2 z2 | %26
 F,,G,,A,,B,, C,A,,G,,F,, | B,,G,,F,,E,, B,,2 B,,2 | E,,4 B,2 A,2 | A,2 G,2 G,F, E,2 | %30
 A,4 D,C,D,E, | F,E,F,G, A,G,A,F, | G,A,G,F, ^E,2 z2 | G,2 z2 C,2 z2 | F,G,A,B, CDEC | %35
 DCB,A, G,F,G,E, | B,A,G,F, E,2 z2 | E,,2 z2 ^E,,2 z2 | F,,G,,A,,B,, C,A,,G,,F,, | %39
 B,,G,,F,,E,, B,,2 B,,2 | !fermata!E,,4 z4 |] %41

